img/customers/quotes.svg

<svg width="35" height="25" viewBox="0 0 35 25" fill="none" xmlns="http://www.w3.org/2000/svg">
<path d="M7.68357 8.83881C9.19632 8.83881 10.6751 9.29239 11.9329 10.1422C13.1907 10.992 14.171 12.1999 14.75 13.6131C15.3289 15.0263 15.4803 16.5813 15.1852 18.0816C14.8901 19.5818 14.1616 20.9599 13.0919 22.0415C12.0223 23.1231 10.6594 23.8597 9.17573 24.1581C7.69205 24.4565 6.15417 24.3034 4.75657 23.718C3.35897 23.1326 2.16443 22.1414 1.32399 20.8695C0.483548 19.5977 0.034965 18.1024 0.034965 16.5728L0 15.4679C0 11.3656 1.61166 7.43124 4.48045 4.53045C7.34923 1.62965 11.2401 0 15.2972 0V4.4194C13.8617 4.4155 12.4396 4.6994 11.1133 5.25467C9.78692 5.80994 8.5826 6.62557 7.56993 7.65441C7.17634 8.05163 6.81326 8.47861 6.48383 8.93161C6.875 8.86974 7.27491 8.8366 7.68138 8.8366L7.68357 8.83881ZM27.3514 8.83881C28.8641 8.83881 30.3429 9.29239 31.6007 10.1422C32.8585 10.992 33.8389 12.1999 34.4178 13.6131C34.9967 15.0263 35.1482 16.5813 34.853 18.0816C34.5579 19.5818 33.8295 20.9599 32.7598 22.0415C31.6901 23.1231 30.3272 23.8597 28.8436 24.1581C27.3599 24.4565 25.822 24.3034 24.4244 23.718C23.0268 23.1326 21.8323 22.1414 20.9918 20.8695C20.1514 19.5977 19.7028 18.1024 19.7028 16.5728L19.6678 15.4679C19.6678 11.3656 21.2795 7.43124 24.1483 4.53045C27.0171 1.62965 30.908 0 34.965 0V4.4194C33.5295 4.4155 32.1075 4.6994 30.7811 5.25467C29.4548 5.80994 28.2504 6.62557 27.2378 7.65441C26.8442 8.05163 26.4811 8.47861 26.1517 8.93161C26.5428 8.86974 26.9427 8.8366 27.3514 8.8366V8.83881Z" fill="url(#paint0_linear_30_10875)"/>
<defs>
<linearGradient id="paint0_linear_30_10875" x1="0" y1="12.1534" x2="35" y2="12.1534" gradientUnits="userSpaceOnUse">
<stop stop-color="#6A11CB"/>
<stop offset="1" stop-color="#2575FC"/>
</linearGradient>
</defs>
</svg>

<svg width="35" height="25" viewBox="0 0 35 25" fill="none" xmlns="http://www.w3.org/2000/svg"><path d="M7.684 8.839c1.512 0 2.991.453 4.249 1.303a7.717 7.717 0 012.817 3.471 7.814 7.814 0 01.435 4.469 7.76 7.76 0 01-2.093 3.96 7.622 7.622 0 01-3.916 2.116 7.57 7.57 0 01-4.42-.44 7.667 7.667 0 01-3.432-2.849 7.795 7.795 0 01-1.289-4.296L0 15.468A15.56 15.56 0 014.48 4.53C7.35 1.63 11.24 0 15.297 0v4.42a10.757 10.757 0 00-4.184.835 10.854 10.854 0 00-3.543 2.4c-.394.397-.757.824-1.086 1.277a7.661 7.661 0 011.197-.095l.003.002zm19.667 0c1.513 0 2.992.453 4.25 1.303a7.716 7.716 0 012.817 3.471 7.814 7.814 0 01.435 4.469 7.76 7.76 0 01-2.093 3.96 7.623 7.623 0 01-3.916 2.116 7.57 7.57 0 01-4.42-.44 7.668 7.668 0 01-3.432-2.849 7.796 7.796 0 01-1.29-4.296l-.034-1.105c0-4.102 1.611-8.037 4.48-10.938C27.018 1.63 30.908 0 34.965 0v4.42a10.757 10.757 0 00-4.184.835 10.854 10.854 0 00-3.543 2.4c-.394.397-.757.824-1.086 1.277a7.666 7.666 0 011.2-.095v.002z" fill="url(#paint0_linear_30_10875)"/><defs><linearGradient id="paint0_linear_30_10875" x1="0" y1="12.153" x2="35" y2="12.153" gradientUnits="userSpaceOnUse"><stop stop-color="#6A11CB"/><stop offset="1" stop-color="#2575FC"/></linearGradient></defs></svg>
